!!!OTL: Das Lieben bringt gro&szlig; Freud (2-54), S. 144
!!!id: K1136
**kern
*clefG2
*k[b-]
*F:
{4c
=1
4.f
8g
4a
8b-
8dd
=2
2cc}
4r
=3
{4a
=4
4cc
4cc
4b-
8cc
8b-
=5
2a}
4r
=6
{8f
8a
=7
4cc
4cc
4cc
8dd
8cc
=8
8cc
8b-
8b-
8a
4b-}
=9
{8cc
8b-
=10
4a
4a
8a
8cc
8b-
8a
=11
8g
8f
8e
8f
4g}
=12
{8f
8g
=13
2a
4r
8b-
8dd
=14
2cc}
4r
=15
{4a
=16
4cc
4cc
4b-
8cc
8b-
=17
2a}
4r
==
*-
!!!minrhy: 8
!!!meters: 4/4 ]  ZZ[6
!!!cut: Das Lieben bringt gro&szlig; Freud (2-54), S. 144
!!!reg: Luxemburg
!!!trd: KINTZELE, Guillaume: An der Ucht, Bd. 2, Luxemburg 1927
!!!rhy1: X_  X_.XX_XX  X__0_
!!!rhy2: X_  X_X_X_XX  X__0_
!!!key: K1136  08  F 4/4 ]  ZZ[6
!!!mod: HEPTATONIK IONISCH]  AMBITUS[9
!!!kad: 534253
!!!akz: 135_543_5554_3322_35_543_
!!!fot: 'a__b__c__cs"d__b__
!!!for: 'a__b__bw_c__d__b__
!!!fok: '/__^__^a_Vd_/__^__
!! PHRAS[AUFTAKTIG]
!!!fkt: Liebe, Treue
!!!bem: in der Quelle mit einer 2. Stimme versehen
!! KINTZELE
!! PR[34] 2K[8] 2G[9] 3K[2] 3G[0] 4A[5] 4Ü[0] 5A[0] 6K[3] 6G[3]
!! 7K[0] 7G[0] 8A[0] MEHR[0] SI[29] ABS[65] SR[17] SP[12]
!! ST[16] 2k[11] 2g[15] 3k[5] 3g[3] 4d[0] 4ü[0] 5d[0] 6k[0] 6g[0]
!! 7k[3] 7g[0] 8d[0] mehr[0] si[37] dm[-8] sr[26] sp[11]
!! 1F[7] 2F[65] 3F[18] 4F[0] LF[0] 2P[4] 3P[7] 4P[0] TRI[0] DF[5] AB[74]
!! TF[0] U3K[0] U3[3] U4[8] U4Ü[0] U5[21] U6K[0] U6[26] U7K[0] U7[12]
!! N1[21] N2K[0] N2[3] N3K[0] N3[3] N4[3] N4Ü[0] N5[0] N6K[0] N6[0]
!!!n7k: 0] N7[0] O1[0] O2K[0] O2[0] O3K[0] O3[0] HÖ[0
!!!RNB: symbol: &szlig; = sz ligature (UTF-8: ÃŸ)
